svg/fluentui-system-icons/ic_fluent_video_chat_48_regular.svg

<svg width="48" height="48" viewBox="0 0 48 48" fill="none" xmlns="http://www.w3.org/2000/svg">
<path d="M10.25 9C6.79822 9 4 11.7982 4 15.25V23.694C4.72796 22.8185 5.56873 22.04 6.5 21.3809V15.25C6.5 13.1789 8.17893 11.5 10.25 11.5H27.75C29.8211 11.5 31.5 13.1789 31.5 15.25V32.75C31.5 34.8211 29.8211 36.5 27.75 36.5H26.1997C25.8741 37.3823 25.4555 38.2196 24.9557 39H27.75C31.2018 39 34 36.2018 34 32.75V30.3123L39.9612 34.9678C41.6027 36.2497 44 35.0801 44 32.9975V15.0024C44 12.9197 41.6026 11.7502 39.9612 13.0321L34 17.6877V15.25C34 11.7982 31.2018 9 27.75 9H10.25ZM34 20.8598L41.5 15.0024V32.9975L34 27.1402V20.8598ZM25 31.9992C25 25.9245 20.0754 21 14.0007 21C7.92594 21 3.00139 25.9245 3.00139 31.9992C3.00139 33.864 3.46666 35.6624 4.33996 37.2621L3.03746 41.7783C2.98756 41.9513 2.98751 42.1349 3.03733 42.3079C3.18348 42.8155 3.71346 43.1086 4.22108 42.9624L8.73997 41.6611C10.3376 42.5329 12.1355 42.9985 14.0007 42.9985C20.0754 42.9985 25 38.0739 25 31.9992ZM10 29H18C18.5523 29 19 29.4477 19 30C19 30.5523 18.5523 31 18 31H10C9.44772 31 9 30.5523 9 30C9 29.4477 9.44772 29 10 29ZM9 34C9 33.4477 9.44772 33 10 33H15C15.5523 33 16 33.4477 16 34C16 34.5523 15.5523 35 15 35H10C9.44772 35 9 34.5523 9 34Z" fill="#212121"/>
</svg>

<svg xmlns="http://www.w3.org/2000/svg" width="48" height="48"><path d="M10.25 9A6.25 6.25 0 0 0 4 15.25v8.444a13.079 13.079 0 0 1 2.5-2.313V15.25a3.75 3.75 0 0 1 3.75-3.75h17.5a3.75 3.75 0 0 1 3.75 3.75v17.5a3.75 3.75 0 0 1-3.75 3.75H26.2c-.326.882-.744 1.72-1.244 2.5h2.794A6.25 6.25 0 0 0 34 32.75v-2.438l5.961 4.656C41.603 36.25 44 35.08 44 32.998V15.002c0-2.082-2.397-3.252-4.039-1.97L34 17.688V15.25A6.25 6.25 0 0 0 27.75 9h-17.5ZM34 20.86l7.5-5.858v17.995L34 27.14v-6.28ZM25 32c0-6.076-4.925-11-11-11-6.074 0-10.999 4.924-10.999 11 0 1.864.466 3.662 1.339 5.262l-1.303 4.516a.956.956 0 0 0 1.184 1.184l4.519-1.3A10.953 10.953 0 0 0 14 42.998c6.075 0 11-4.925 11-11Zm-15-3h8a1 1 0 1 1 0 2h-8a1 1 0 1 1 0-2Zm-1 5a1 1 0 0 1 1-1h5a1 1 0 1 1 0 2h-5a1 1 0 0 1-1-1Z"/></svg>
